X:17321
T:Tom Pudien Wals
S:Tradine as Starian
M:C|
L:1/8
C:Tilk Buly Skidchar Lin
M:6/8
L:1/8
R:Jig
K:Em
B|A2B dBA|GAB cBA|BAB B2A|GAB dcA|!
BEG Bcd|efe dBG|ABA A2:|
|:BAB A2A|Acd cBA|Bcd edc|ece d2d|cAA A2:|!
d|eaa age|dBB ABd|Bee efe|ded eaa|
fed edc|Ade edB|Bcd edB|cBA Bcd|edB cBA|GEE D2:|!
efg gfe|dBA GED|ABA BEE||